svgs/kotatsu.svg

<svg width="192" height="192" viewBox="0 0 192 192" fill="none" xmlns="http://www.w3.org/2000/svg">
<path d="M70.3566 124.937C74.2144 129.022 80.8858 129.022 84.7435 124.937C86.9656 122.584 87.8325 119.482 87.3441 116.544H79.5483V108.484C76.3032 107.832 72.7764 108.787 70.3566 111.349C66.7132 115.207 66.7132 121.079 70.3566 124.937Z" stroke="black" stroke-width="6" stroke-linecap="round" stroke-linejoin="round"/>
<path d="M125.996 123.824C129.853 127.909 136.525 127.909 140.383 123.824C142.605 121.471 143.472 118.369 142.983 115.432H135.187V107.371C131.942 106.719 128.416 107.674 125.996 110.236C122.352 114.094 122.352 119.966 125.996 123.824Z" stroke="black" stroke-width="6" stroke-linecap="round" stroke-linejoin="round"/>
<path d="M22 168.932C30.9968 139.519 49.8196 106.06 57.609 102.722C57.2351 85.4564 58.7238 76.6011 72.0752 66C81.6066 72.5829 85.8615 77.3241 91.5489 87.6992H118.812C123.414 77.4316 127.088 72.4388 137.173 66C148.255 73.5834 151.046 82.4622 152.752 102.722C162.3 114.724 165.75 121.712 170 134.436" stroke="black" stroke-width="12" stroke-linecap="round" stroke-linejoin="round"/>
<path d="M112.307 122.752C107.93 122.235 102.763 122.291 98.3973 122.752C95.9336 123.012 95.2277 125.39 94.5026 127.759C92.7036 133.636 105.63 138.887 105.63 138.887C105.63 138.887 117.937 133.497 116.202 127.759C115.485 125.388 114.767 123.042 112.307 122.752Z" stroke="black" stroke-width="6" stroke-linecap="round" stroke-linejoin="round"/>
</svg>

<svg width="192" height="192" viewBox="0 0 192 192" fill="none" xmlns="http://www.w3.org/2000/svg"><path d="M70.357 124.937c3.857 4.085 10.529 4.085 14.386 0 2.223-2.353 3.09-5.455 2.601-8.393h-7.796v-8.06c-3.245-.652-6.772.303-9.191 2.865-3.644 3.858-3.644 9.73 0 13.588ZM125.996 123.824c3.857 4.085 10.529 4.085 14.387 0 2.222-2.353 3.089-5.455 2.6-8.392h-7.796v-8.061c-3.245-.652-6.771.303-9.191 2.865-3.644 3.858-3.644 9.73 0 13.588Z" stroke="#000" stroke-width="6" stroke-linecap="round" stroke-linejoin="round"/><path d="M22 168.932c8.997-29.413 27.82-62.872 35.609-66.21-.374-17.266 1.115-26.12 14.466-36.722 9.532 6.583 13.787 11.324 19.474 21.7h27.263c4.602-10.268 8.276-15.261 18.361-21.7 11.082 7.583 13.873 16.462 15.579 36.722 9.548 12.002 12.998 18.99 17.248 31.714" stroke="#000" stroke-width="12" stroke-linecap="round" stroke-linejoin="round"/><path d="M112.307 122.752c-4.377-.517-9.544-.461-13.91 0-2.463.26-3.17 2.638-3.894 5.007-1.8 5.877 11.127 11.128 11.127 11.128s12.307-5.39 10.572-11.128c-.717-2.371-1.435-4.717-3.895-5.007Z" stroke="#000" stroke-width="6" stroke-linecap="round" stroke-linejoin="round"/></svg>
